; G-Code generated by Simplify3D(R) Version 4.1.0
; May 15, 2021 at 3:03:17 PM
; Settings Summary
;   processName,Process1
;   applyToModels,FrameA1
;   profileName,Default (modified)
;   profileVersion,2017-03-01 08:00:00
;   baseProfile,
;   printMaterial,PLA
;   printQuality,Medium
;   printExtruders,
;   extruderName,Primary Extruder
;   extruderToolheadNumber,0
;   extruderDiameter,0.4
;   extruderAutoWidth,0
;   extruderWidth,0.4
;   extrusionMultiplier,1
;   extruderUseRetract,1
;   extruderRetractionDistance,4
;   extruderExtraRestartDistance,0
;   extruderRetractionZLift,0
;   extruderRetractionSpeed,4200
;   extruderUseCoasting,1
;   extruderCoastingDistance,0.2
;   extruderUseWipe,1
;   extruderWipeDistance,5
;   primaryExtruder,0
;   layerHeight,0.2
;   topSolidLayers,3
;   bottomSolidLayers,3
;   perimeterOutlines,2
;   printPerimetersInsideOut,1
;   startPointOption,2
;   startPointOriginX,0
;   startPointOriginY,0
;   sequentialIslands,0
;   spiralVaseMode,0
;   firstLayerHeightPercentage,90
;   firstLayerWidthPercentage,100
;   firstLayerUnderspeed,0.5
;   useRaft,0
;   raftExtruder,0
;   raftTopLayers,3
;   raftBaseLayers,2
;   raftOffset,3
;   raftSeparationDistance,0.14
;   raftTopInfill,100
;   aboveRaftSpeedMultiplier,0.3
;   useSkirt,1
;   skirtExtruder,0
;   skirtLayers,1
;   skirtOutlines,2
;   skirtOffset,4
;   usePrimePillar,0
;   primePillarExtruder,999
;   primePillarWidth,12
;   primePillarLocation,7
;   primePillarSpeedMultiplier,1
;   useOozeShield,0
;   oozeShieldExtruder,999
;   oozeShieldOffset,2
;   oozeShieldOutlines,1
;   oozeShieldSidewallShape,1
;   oozeShieldSidewallAngle,30
;   oozeShieldSpeedMultiplier,1
;   infillExtruder,0
;   internalInfillPattern,Rectilinear
;   externalInfillPattern,Rectilinear
;   infillPercentage,60
;   outlineOverlapPercentage,20
;   infillExtrusionWidthPercentage,100
;   minInfillLength,5
;   infillLayerInterval,1
;   internalInfillAngles,45,-45
;   overlapInternalInfillAngles,0
;   externalInfillAngles,45,-45
;   generateSupport,0
;   supportExtruder,0
;   supportInfillPercentage,30
;   supportExtraInflation,0
;   supportBaseLayers,0
;   denseSupportExtruder,0
;   denseSupportLayers,0
;   denseSupportInfillPercentage,70
;   supportLayerInterval,1
;   supportHorizontalPartOffset,0.3
;   supportUpperSeparationLayers,1
;   supportLowerSeparationLayers,1
;   supportType,0
;   supportGridSpacing,4
;   maxOverhangAngle,45
;   supportAngles,0
;   temperatureName,Primary Extruder,Bed
;   temperatureNumber,0,0
;   temperatureSetpointCount,1,1
;   temperatureSetpointLayers,1,1
;   temperatureSetpointTemperatures,200,60
;   temperatureStabilizeAtStartup,1,1
;   temperatureHeatedBed,0,1
;   fanLayers,1,2
;   fanSpeeds,0,100
;   blipFanToFullPower,0
;   adjustSpeedForCooling,1
;   minSpeedLayerTime,15
;   minCoolingSpeedSlowdown,20
;   increaseFanForCooling,0
;   minFanLayerTime,45
;   maxCoolingFanSpeed,100
;   increaseFanForBridging,0
;   bridgingFanSpeed,100
;   use5D,1
;   relativeEdistances,0
;   allowEaxisZeroing,1
;   independentExtruderAxes,0
;   includeM10123,0
;   stickySupport,1
;   applyToolheadOffsets,0
;   gcodeXoffset,0
;   gcodeYoffset,0
;   gcodeZoffset,0
;   overrideMachineDefinition,0
;   machineTypeOverride,0
;   strokeXoverride,200
;   strokeYoverride,200
;   strokeZoverride,200
;   originOffsetXoverride,0
;   originOffsetYoverride,0
;   originOffsetZoverride,0
;   homeXdirOverride,-1
;   homeYdirOverride,-1
;   homeZdirOverride,-1
;   flipXoverride,1
;   flipYoverride,-1
;   flipZoverride,1
;   toolheadOffsets,0,0|0,0|0,0|0,0|0,0|0,0
;   overrideFirmwareConfiguration,0
;   firmwareTypeOverride,RepRap (Marlin/Repetier/Sprinter)
;   GPXconfigOverride,r2
;   baudRateOverride,115200
;   overridePrinterModels,0
;   printerModelsOverride
;   startingGcode,G28; home all axes
;   layerChangeGcode,
;   retractionGcode,
;   toolChangeGcode,
;   endingGcode,G28 X0 Y0;,M104 S0 ; turn off extruder,M140 S0 ; turn off bed,M84 ; disable motors
;   exportFileFormat,gcode
;   celebration,0
;   celebrationSong,Random Song
;   postProcessing,
;   defaultSpeed,3000
;   outlineUnderspeed,0.5
;   solidInfillUnderspeed,0.8
;   supportUnderspeed,0.8
;   rapidXYspeed,4800
;   rapidZspeed,1200
;   minBridgingArea,50
;   bridgingExtraInflation,0
;   bridgingExtrusionMultiplier,1
;   bridgingSpeedMultiplier,1
;   useFixedBridgingAngle,0
;   fixedBridgingAngle,0
;   applyBridgingToPerimeters,0
;   filamentDiameters,1.75|1.75|1.75|1.75|1.75|1.75
;   filamentPricesPerKg,46|46|46|46|46|46
;   filamentDensities,1.25|1.25|1.25|1.25|1.25|1.25
;   useMinPrintHeight,0
;   minPrintHeight,0
;   useMaxPrintHeight,0
;   maxPrintHeight,0
;   useDiaphragm,0
;   diaphragmLayerInterval,20
;   robustSlicing,1
;   mergeAllIntoSolid,0
;   onlyRetractWhenCrossingOutline,1
;   retractBetweenLayers,1
;   useRetractionMinTravel,0
;   retractionMinTravel,3
;   retractWhileWiping,0
;   onlyWipeOutlines,1
;   avoidCrossingOutline,1
;   maxMovementDetourFactor,10
;   toolChangeRetractionDistance,12
;   toolChangeExtraRestartDistance,-0.5
;   toolChangeRetractionSpeed,600
;   externalThinWallType,0
;   internalThinWallType,2
;   thinWallAllowedOverlapPercentage,15
;   singleExtrusionMinLength,1
;   singleExtrusionMinPrintingWidthPercentage,50
;   singleExtrusionMaxPrintingWidthPercentage,200
;   singleExtrusionEndpointExtension,0.2
;   horizontalSizeCompensation,0
G90
M82
M106 S0
M140 S60
M190 S60
M104 S200 T0
M109 S200 T0
G28; home all axes
; process Process1
; layer 1, Z = 0.180
T0
G92 E0.0000
G1 E-4.0000 F4200
; feature skirt
; tool H0.180 W0.400
G1 Z0.180 F1200
G1 X61.106 Y75.418 F4800
G1 E0.0000 F4200
G92 E0.0000
G1 X61.477 Y75.168 E0.0134 F1500
G1 X62.140 Y74.810 E0.0359
G1 X62.565 Y74.632 E0.0497
G1 X63.285 Y74.413 E0.0723
G1 X63.730 Y74.324 E0.0859
G1 X64.362 Y74.261 E0.1049
G1 X64.589 Y74.250 E0.1117
G1 X106.055 Y74.250 E1.3529
G1 X108.750 Y76.945 E1.4670
G1 X108.750 Y77.250 E1.4761
G1 X141.035 Y77.250 E2.4426
G1 X141.301 Y76.789 E2.4585
G1 X141.827 Y76.103 E2.4844
G1 X142.253 Y75.677 E2.5024
G1 X142.939 Y75.151 E2.5283
G1 X143.461 Y74.850 E2.5463
G1 X144.259 Y74.519 E2.5722
G1 X144.842 Y74.363 E2.5902
G1 X145.549 Y74.270 E2.6116
G1 X145.849 Y74.250 E2.6206
G1 X151.301 Y74.250 E2.7838
G1 X151.601 Y74.270 E2.7928
G1 X152.308 Y74.363 E2.8141
G1 X152.891 Y74.519 E2.8322
G1 X153.689 Y74.850 E2.8581
G1 X154.211 Y75.151 E2.8761
G1 X154.896 Y75.677 E2.9020
G1 X155.323 Y76.103 E2.9200
G1 X155.849 Y76.789 E2.9459
G1 X156.150 Y77.311 E2.9639
G1 X156.481 Y78.109 E2.9898
G1 X156.637 Y78.692 E3.0079
G1 X156.730 Y79.399 E3.0292
G1 X156.750 Y79.699 E3.0382
G1 X156.750 Y80.401 E3.0592
G1 X156.730 Y80.701 E3.0682
G1 X156.637 Y81.408 E3.0896
G1 X156.481 Y81.991 E3.1076
G1 X156.150 Y82.789 E3.1335
G1 X155.849 Y83.311 E3.1515
G1 X155.323 Y83.997 E3.1774
G1 X154.897 Y84.423 E3.1955
G1 X154.211 Y84.949 E3.2213
G1 X153.689 Y85.251 E3.2394
G1 X152.891 Y85.581 E3.2652
G1 X152.308 Y85.737 E3.2833
G1 X151.750 Y85.811 E3.3001
G1 X151.750 Y114.189 E4.1496
G1 X152.308 Y114.263 E4.1665
G1 X152.891 Y114.419 E4.1845
G1 X153.689 Y114.749 E4.2104
G1 X154.211 Y115.051 E4.2284
G1 X154.897 Y115.577 E4.2543
G1 X155.323 Y116.003 E4.2724
G1 X155.849 Y116.689 E4.2982
G1 X156.150 Y117.211 E4.3163
G1 X156.481 Y118.009 E4.3421
G1 X156.637 Y118.592 E4.3602
G1 X156.730 Y119.299 E4.3815
G1 X156.750 Y119.599 E4.3905
G1 X156.750 Y120.301 E4.4115
G1 X156.730 Y120.601 E4.4205
G1 X156.637 Y121.308 E4.4419
G1 X156.481 Y121.891 E4.4600
G1 X156.150 Y122.689 E4.4858
G1 X155.849 Y123.211 E4.5039
G1 X155.323 Y123.897 E4.5297
G1 X154.897 Y124.323 E4.5478
G1 X154.211 Y124.849 E4.5736
G1 X153.689 Y125.151 E4.5917
G1 X152.891 Y125.481 E4.6176
G1 X152.308 Y125.637 E4.6356
G1 X151.601 Y125.730 E4.6570
G1 X151.301 Y125.750 E4.6660
G1 X141.672 Y125.750 E4.9542
G1 X141.497 Y125.743 E4.9594
G1 X140.477 Y125.665 E4.9901
G1 X140.130 Y125.612 E5.0006
G1 X139.044 Y125.359 E5.0339
G1 X138.710 Y125.254 E5.0444
G1 X137.679 Y124.841 E5.0777
G1 X137.365 Y124.687 E5.0882
G1 X136.407 Y124.121 E5.1215
G1 X136.119 Y123.920 E5.1320
G1 X135.258 Y123.215 E5.1653
G1 X135.004 Y122.973 E5.1758
G1 X134.349 Y122.244 E5.2051
G1 X134.293 Y122.179 E5.2077
G1 X133.197 Y120.865 E5.2589
G1 X132.173 Y119.814 E5.3028
G1 X131.037 Y118.815 E5.3481
G1 X129.888 Y117.952 E5.3911
G1 X128.637 Y117.154 E5.4355
G1 X127.341 Y116.463 E5.4795
G1 X125.830 Y115.811 E5.5288
G1 X124.575 Y115.373 E5.5686
G1 X123.154 Y114.998 E5.6126
G1 X121.532 Y114.711 E5.6619
G1 X120.210 Y114.574 E5.7016
G1 X118.741 Y114.535 E5.7456
G1 X117.097 Y114.629 E5.7949
G1 X115.779 Y114.799 E5.8347
G1 X114.341 Y115.099 E5.8787
G1 X112.762 Y115.568 E5.9280
G1 X111.517 Y116.037 E5.9678
G1 X110.188 Y116.659 E6.0117
G1 X108.759 Y117.479 E6.0611
G1 X107.655 Y118.222 E6.1009
G1 X106.493 Y119.141 E6.1452
G1 X105.340 Y120.208 E6.1923
G1 X101.478 Y124.070 E6.3557
G1 X101.252 Y124.268 E6.3648
G1 X100.583 Y124.782 E6.3900
G1 X100.060 Y125.083 E6.4081
G1 X99.142 Y125.464 E6.4378
G1 X98.559 Y125.620 E6.4559
G1 X97.723 Y125.730 E6.4811
G1 X97.422 Y125.750 E6.4902
G1 X64.589 Y125.750 E7.4730
G1 X64.362 Y125.739 E7.4798
G1 X63.730 Y125.676 E7.4988
G1 X63.285 Y125.587 E7.5124
G1 X62.568 Y125.369 E7.5348
G1 X62.149 Y125.194 E7.5484
G1 X61.489 Y124.840 E7.5708
G1 X61.112 Y124.587 E7.5844
G1 X60.622 Y124.182 E7.6035
G1 X60.454 Y124.029 E7.6102
G1 X56.916 Y120.467 E7.7605
G1 X56.719 Y120.241 E7.7695
G1 X56.210 Y119.573 E7.7947
G1 X55.911 Y119.052 E7.8126
G1 X55.533 Y118.137 E7.8423
G1 X55.379 Y117.557 E7.8602
G1 X55.270 Y116.724 E7.8854
G1 X55.250 Y116.424 E7.8944
G1 X55.250 Y111.181 E8.0513
G1 X55.231 Y110.940 E8.0586
G1 X55.217 Y110.881 E8.0604
G1 X55.194 Y110.825 E8.0622
G1 X55.162 Y110.773 E8.0640
G1 X55.123 Y110.727 E8.0658
G1 X55.077 Y110.688 E8.0676
G1 X55.025 Y110.656 E8.0694
G1 X54.969 Y110.633 E8.0713
G1 X54.910 Y110.619 E8.0731
G1 X54.669 Y110.600 E8.0803
G1 X53.760 Y110.600 E8.1075
G1 X53.579 Y110.593 E8.1129
G1 X52.370 Y110.498 E8.1492
G1 X52.013 Y110.441 E8.1601
G1 X50.746 Y110.137 E8.1991
G1 X50.403 Y110.025 E8.2099
G1 X49.199 Y109.527 E8.2489
G1 X48.877 Y109.363 E8.2597
G1 X47.766 Y108.682 E8.2987
G1 X47.473 Y108.469 E8.3095
G1 X46.482 Y107.623 E8.3485
G1 X46.227 Y107.368 E8.3593
G1 X45.381 Y106.377 E8.3984
G1 X45.168 Y106.084 E8.4092
G1 X44.487 Y104.973 E8.4482
G1 X44.323 Y104.651 E8.4590
G1 X43.825 Y103.447 E8.4980
G1 X43.713 Y103.104 E8.5088
G1 X43.409 Y101.837 E8.5478
G1 X43.352 Y101.480 E8.5586
G1 X43.250 Y100.181 E8.5976
G1 X43.250 Y99.819 E8.6085
G1 X43.352 Y98.520 E8.6475
G1 X43.409 Y98.163 E8.6583
G1 X43.713 Y96.896 E8.6973
G1 X43.825 Y96.553 E8.7081
G1 X44.323 Y95.349 E8.7471
G1 X44.487 Y95.027 E8.7579
G1 X45.168 Y93.916 E8.7969
G1 X45.381 Y93.623 E8.8078
G1 X46.227 Y92.632 E8.8468
G1 X46.482 Y92.377 E8.8576
G1 X47.473 Y91.531 E8.8966
G1 X47.766 Y91.318 E8.9074
G1 X48.877 Y90.637 E8.9464
G1 X49.199 Y90.473 E8.9572
G1 X50.403 Y89.975 E8.9962
G1 X50.746 Y89.863 E9.0071
G1 X52.013 Y89.559 E9.0461
G1 X52.370 Y89.502 E9.0569
G1 X53.579 Y89.407 E9.0932
G1 X53.760 Y89.400 E9.0986
G1 X54.669 Y89.400 E9.1258
G1 X54.910 Y89.381 E9.1331
G1 X54.969 Y89.367 E9.1349
G1 X55.019 Y89.346 E9.1365
G1 X55.081 Y89.309 E9.1386
G1 X55.123 Y89.273 E9.1403
G1 X55.162 Y89.227 E9.1421
G1 X55.194 Y89.175 E9.1439
G1 X55.217 Y89.119 E9.1457
G1 X55.231 Y89.060 E9.1475
G1 X55.250 Y88.819 E9.1548
G1 X55.250 Y83.576 E9.3118
G1 X55.270 Y83.276 E9.3207
G1 X55.379 Y82.443 E9.3459
G1 X55.533 Y81.863 E9.3638
G1 X55.911 Y80.948 E9.3935
G1 X56.210 Y80.427 E9.4115
G1 X56.719 Y79.759 E9.4366
G1 X56.916 Y79.533 E9.4456
G1 X60.454 Y75.971 E9.5959
G1 X60.622 Y75.818 E9.6027
G1 X61.106 Y75.418 E9.6215
G92 E0.0000
G1 E-4.0000 F4200
G1 X61.684 Y75.511 F4800
G1 E0.0000 F4200
G92 E0.0000
G1 X62.312 Y75.171 E0.0214 F1500
G1 X62.701 Y75.009 E0.0340
G1 X63.382 Y74.801 E0.0553
G1 X63.789 Y74.720 E0.0677
G1 X64.392 Y74.660 E0.0859
G1 X64.599 Y74.650 E0.0921
G1 X105.890 Y74.650 E1.3281
G1 X108.350 Y77.110 E1.4322
G1 X108.350 Y77.650 E1.4484
G1 X141.266 Y77.650 E2.4337
G1 X141.634 Y77.012 E2.4557
G1 X142.128 Y76.368 E2.4800
G1 X142.518 Y75.978 E2.4965
G1 X143.162 Y75.484 E2.5208
G1 X143.638 Y75.209 E2.5373
G1 X144.388 Y74.898 E2.5616
G1 X144.920 Y74.756 E2.5781
G1 X145.588 Y74.668 E2.5982
G1 X145.862 Y74.650 E2.6065
G1 X151.288 Y74.650 E2.7689
G1 X151.562 Y74.668 E2.7771
G1 X152.230 Y74.756 E2.7973
G1 X152.762 Y74.898 E2.8137
G1 X153.512 Y75.209 E2.8380
G1 X153.988 Y75.484 E2.8545
G1 X154.632 Y75.978 E2.8788
G1 X155.022 Y76.368 E2.8953
G1 X155.516 Y77.012 E2.9196
G1 X155.791 Y77.488 E2.9361
G1 X156.102 Y78.238 E2.9604
G1 X156.244 Y78.770 E2.9769
G1 X156.332 Y79.438 E2.9970
G1 X156.350 Y79.712 E3.0052
G1 X156.350 Y80.388 E3.0255
G1 X156.332 Y80.662 E3.0337
G1 X156.244 Y81.330 E3.0539
G1 X156.102 Y81.862 E3.0703
G1 X155.791 Y82.612 E3.0946
G1 X155.516 Y83.088 E3.1111
G1 X155.022 Y83.732 E3.1354
G1 X154.632 Y84.122 E3.1519
G1 X153.988 Y84.616 E3.1762
G1 X153.511 Y84.891 E3.1927
G1 X152.762 Y85.202 E3.2170
G1 X152.230 Y85.344 E3.2334
G1 X151.350 Y85.460 E3.2600
G1 X151.350 Y114.540 E4.1305
G1 X152.230 Y114.656 E4.1571
G1 X152.762 Y114.798 E4.1735
G1 X153.511 Y115.109 E4.1978
G1 X153.988 Y115.384 E4.2143
G1 X154.632 Y115.878 E4.2386
G1 X155.022 Y116.268 E4.2551
G1 X155.516 Y116.912 E4.2794
G1 X155.791 Y117.388 E4.2959
G1 X156.102 Y118.138 E4.3202
G1 X156.244 Y118.670 E4.3367
G1 X156.332 Y119.338 E4.3568
G1 X156.350 Y119.612 E4.3651
G1 X156.350 Y120.288 E4.3853
G1 X156.332 Y120.562 E4.3935
G1 X156.244 Y121.230 E4.4137
G1 X156.102 Y121.762 E4.4301
G1 X155.791 Y122.512 E4.4544
G1 X155.516 Y122.988 E4.4709
G1 X155.022 Y123.632 E4.4952
G1 X154.632 Y124.022 E4.5117
G1 X153.988 Y124.516 E4.5360
G1 X153.511 Y124.791 E4.5525
G1 X152.762 Y125.102 E4.5768
G1 X152.230 Y125.244 E4.5932
G1 X151.562 Y125.332 E4.6134
G1 X151.288 Y125.350 E4.6216
G1 X141.680 Y125.350 E4.9092
G1 X141.520 Y125.344 E4.9140
G1 X140.522 Y125.268 E4.9440
G1 X140.206 Y125.219 E4.9536
G1 X139.150 Y124.973 E4.9860
G1 X138.844 Y124.877 E4.9956
G1 X137.842 Y124.476 E5.0279
G1 X137.555 Y124.334 E5.0375
G1 X136.623 Y123.784 E5.0699
G1 X136.361 Y123.601 E5.0795
G1 X135.524 Y122.915 E5.1119
G1 X135.292 Y122.694 E5.1215
G1 X134.649 Y121.979 E5.1502
G1 X134.598 Y121.920 E5.1526
G1 X133.494 Y120.597 E5.2042
G1 X132.449 Y119.523 E5.2490
G1 X131.289 Y118.504 E5.2952
G1 X130.116 Y117.623 E5.3391
G1 X128.839 Y116.809 E5.3845
G1 X127.515 Y116.102 E5.4294
G1 X125.975 Y115.438 E5.4796
G1 X124.692 Y114.991 E5.5203
G1 X123.240 Y114.607 E5.5652
G1 X121.588 Y114.314 E5.6155
G1 X120.236 Y114.174 E5.6561
G1 X118.735 Y114.135 E5.7011
G1 X117.060 Y114.230 E5.7513
G1 X115.712 Y114.404 E5.7920
G1 X114.243 Y114.710 E5.8369
G1 X112.634 Y115.189 E5.8872
G1 X111.362 Y115.668 E5.9279
G1 X110.003 Y116.304 E5.9728
G1 X108.547 Y117.139 E6.0230
G1 X107.419 Y117.898 E6.0637
G1 X106.232 Y118.837 E6.1090
G1 X105.062 Y119.920 E6.1567
G1 X101.205 Y123.778 E6.3200
G1 X100.998 Y123.959 E6.3283
G1 X100.360 Y124.449 E6.3523
G1 X99.883 Y124.724 E6.3688
G1 X99.013 Y125.085 E6.3970
G1 X98.481 Y125.227 E6.4135
G1 X97.683 Y125.332 E6.4376
G1 X97.409 Y125.350 E6.4458
G1 X64.599 Y125.350 E7.4280
G1 X64.392 Y125.340 E7.4342
G1 X63.789 Y125.280 E7.4523
G1 X63.382 Y125.199 E7.4647
G1 X62.703 Y124.992 E7.4860
G1 X62.321 Y124.833 E7.4984
G1 X61.695 Y124.497 E7.5196
G1 X61.351 Y124.266 E7.5320
G1 X60.884 Y123.880 E7.5502
G1 X60.731 Y123.740 E7.5564
G1 X57.209 Y120.194 E7.7060
G1 X57.029 Y119.988 E7.7142
G1 X56.544 Y119.351 E7.7381
G1 X56.271 Y118.876 E7.7545
G1 X55.913 Y118.008 E7.7826
G1 X55.772 Y117.479 E7.7990
G1 X55.668 Y116.685 E7.8230
G1 X55.650 Y116.411 E7.8312
G1 X55.650 Y111.165 E7.9882
G1 X55.627 Y110.877 E7.9969
G1 X55.598 Y110.757 E8.0006
G1 X55.551 Y110.643 E8.0043
G1 X55.487 Y110.537 E8.0080
G1 X55.407 Y110.443 E8.0117
G1 X55.313 Y110.363 E8.0154
G1 X55.207 Y110.299 E8.0191
G1 X55.093 Y110.251 E8.0228
G1 X54.973 Y110.223 E8.0265
G1 X54.685 Y110.200 E8.0351
G1 X53.767 Y110.200 E8.0626
G1 X53.603 Y110.194 E8.0675
G1 X52.417 Y110.100 E8.1031
G1 X52.091 Y110.049 E8.1130
G1 X50.855 Y109.752 E8.1511
G1 X50.541 Y109.650 E8.1609
