; G-Code generated by Simplify3D(R) Version 4.1.0
; May 15, 2021 at 12:35:29 AM
; Settings Summary
;   processName,Process1
;   applyToModels,frameA1_mirror
;   profileName,Default (modified)
;   profileVersion,2017-03-01 08:00:00
;   baseProfile,
;   printMaterial,PLA
;   printQuality,Medium
;   printExtruders,
;   extruderName,Primary Extruder
;   extruderToolheadNumber,0
;   extruderDiameter,0.4
;   extruderAutoWidth,0
;   extruderWidth,0.4
;   extrusionMultiplier,1
;   extruderUseRetract,1
;   extruderRetractionDistance,4
;   extruderExtraRestartDistance,0
;   extruderRetractionZLift,0
;   extruderRetractionSpeed,4200
;   extruderUseCoasting,1
;   extruderCoastingDistance,0.2
;   extruderUseWipe,1
;   extruderWipeDistance,5
;   primaryExtruder,0
;   layerHeight,0.2
;   topSolidLayers,3
;   bottomSolidLayers,3
;   perimeterOutlines,2
;   printPerimetersInsideOut,1
;   startPointOption,2
;   startPointOriginX,0
;   startPointOriginY,0
;   sequentialIslands,0
;   spiralVaseMode,0
;   firstLayerHeightPercentage,90
;   firstLayerWidthPercentage,100
;   firstLayerUnderspeed,0.5
;   useRaft,0
;   raftExtruder,0
;   raftTopLayers,3
;   raftBaseLayers,2
;   raftOffset,3
;   raftSeparationDistance,0.14
;   raftTopInfill,100
;   aboveRaftSpeedMultiplier,0.3
;   useSkirt,1
;   skirtExtruder,0
;   skirtLayers,1
;   skirtOutlines,2
;   skirtOffset,4
;   usePrimePillar,0
;   primePillarExtruder,999
;   primePillarWidth,12
;   primePillarLocation,7
;   primePillarSpeedMultiplier,1
;   useOozeShield,0
;   oozeShieldExtruder,999
;   oozeShieldOffset,2
;   oozeShieldOutlines,1
;   oozeShieldSidewallShape,1
;   oozeShieldSidewallAngle,30
;   oozeShieldSpeedMultiplier,1
;   infillExtruder,0
;   internalInfillPattern,Rectilinear
;   externalInfillPattern,Rectilinear
;   infillPercentage,60
;   outlineOverlapPercentage,15
;   infillExtrusionWidthPercentage,100
;   minInfillLength,5
;   infillLayerInterval,1
;   internalInfillAngles,45,-45
;   overlapInternalInfillAngles,0
;   externalInfillAngles,45,-45
;   generateSupport,0
;   supportExtruder,0
;   supportInfillPercentage,30
;   supportExtraInflation,0
;   supportBaseLayers,0
;   denseSupportExtruder,0
;   denseSupportLayers,0
;   denseSupportInfillPercentage,70
;   supportLayerInterval,1
;   supportHorizontalPartOffset,0.3
;   supportUpperSeparationLayers,1
;   supportLowerSeparationLayers,1
;   supportType,0
;   supportGridSpacing,4
;   maxOverhangAngle,45
;   supportAngles,0
;   temperatureName,Primary Extruder
;   temperatureNumber,0
;   temperatureSetpointCount,1
;   temperatureSetpointLayers,1
;   temperatureSetpointTemperatures,200
;   temperatureStabilizeAtStartup,1
;   temperatureHeatedBed,0
;   fanLayers,1,2
;   fanSpeeds,0,100
;   blipFanToFullPower,0
;   adjustSpeedForCooling,1
;   minSpeedLayerTime,15
;   minCoolingSpeedSlowdown,20
;   increaseFanForCooling,0
;   minFanLayerTime,45
;   maxCoolingFanSpeed,100
;   increaseFanForBridging,0
;   bridgingFanSpeed,100
;   use5D,1
;   relativeEdistances,0
;   allowEaxisZeroing,1
;   independentExtruderAxes,0
;   includeM10123,0
;   stickySupport,1
;   applyToolheadOffsets,0
;   gcodeXoffset,0
;   gcodeYoffset,0
;   gcodeZoffset,0
;   overrideMachineDefinition,0
;   machineTypeOverride,0
;   strokeXoverride,200
;   strokeYoverride,200
;   strokeZoverride,200
;   originOffsetXoverride,0
;   originOffsetYoverride,0
;   originOffsetZoverride,0
;   homeXdirOverride,-1
;   homeYdirOverride,-1
;   homeZdirOverride,-1
;   flipXoverride,1
;   flipYoverride,-1
;   flipZoverride,1
;   toolheadOffsets,0,0|0,0|0,0|0,0|0,0|0,0
;   overrideFirmwareConfiguration,0
;   firmwareTypeOverride,RepRap (Marlin/Repetier/Sprinter)
;   GPXconfigOverride,r2
;   baudRateOverride,115200
;   overridePrinterModels,0
;   printerModelsOverride
;   startingGcode,G28; home all axes
;   layerChangeGcode,
;   retractionGcode,
;   toolChangeGcode,
;   endingGcode,G28 X0 Y0;,M104 S0 ; turn off extruder,M140 S0 ; turn off bed,M84 ; disable motors
;   exportFileFormat,gcode
;   celebration,0
;   celebrationSong,Random Song
;   postProcessing,
;   defaultSpeed,3000
;   outlineUnderspeed,0.5
;   solidInfillUnderspeed,0.8
;   supportUnderspeed,0.8
;   rapidXYspeed,4800
;   rapidZspeed,1200
;   minBridgingArea,50
;   bridgingExtraInflation,0
;   bridgingExtrusionMultiplier,1
;   bridgingSpeedMultiplier,1
;   useFixedBridgingAngle,0
;   fixedBridgingAngle,0
;   applyBridgingToPerimeters,0
;   filamentDiameters,1.75|1.75|1.75|1.75|1.75|1.75
;   filamentPricesPerKg,46|46|46|46|46|46
;   filamentDensities,1.25|1.25|1.25|1.25|1.25|1.25
;   useMinPrintHeight,0
;   minPrintHeight,0
;   useMaxPrintHeight,0
;   maxPrintHeight,0
;   useDiaphragm,0
;   diaphragmLayerInterval,20
;   robustSlicing,1
;   mergeAllIntoSolid,0
;   onlyRetractWhenCrossingOutline,1
;   retractBetweenLayers,1
;   useRetractionMinTravel,0
;   retractionMinTravel,3
;   retractWhileWiping,0
;   onlyWipeOutlines,1
;   avoidCrossingOutline,0
;   maxMovementDetourFactor,3
;   toolChangeRetractionDistance,12
;   toolChangeExtraRestartDistance,-0.5
;   toolChangeRetractionSpeed,600
;   externalThinWallType,0
;   internalThinWallType,2
;   thinWallAllowedOverlapPercentage,10
;   singleExtrusionMinLength,1
;   singleExtrusionMinPrintingWidthPercentage,50
;   singleExtrusionMaxPrintingWidthPercentage,200
;   singleExtrusionEndpointExtension,0.2
;   horizontalSizeCompensation,0
G90
M82
M106 S0
M104 S200 T0
M109 S200 T0
G28; home all axes
; process Process1
; layer 1, Z = 0.180
T0
G92 E0.0000
G1 E-4.0000 F4200
; feature skirt
; tool H0.180 W0.400
G1 Z0.180 F1200
G1 X61.112 Y75.413 F4800
G1 E0.0000 F4200
G92 E0.0000
G1 X61.489 Y75.160 E0.0136 F1500
G1 X62.149 Y74.806 E0.0360
G1 X62.568 Y74.631 E0.0496
G1 X63.285 Y74.413 E0.0720
G1 X63.730 Y74.324 E0.0856
G1 X64.362 Y74.261 E0.1047
G1 X64.589 Y74.250 E0.1114
G1 X97.422 Y74.250 E1.0943
G1 X97.723 Y74.270 E1.1033
G1 X98.559 Y74.380 E1.1285
G1 X99.142 Y74.536 E1.1466
G1 X100.060 Y74.917 E1.1764
G1 X100.583 Y75.218 E1.1944
G1 X101.252 Y75.732 E1.2197
G1 X101.478 Y75.930 E1.2287
G1 X105.340 Y79.792 E1.3922
G1 X106.493 Y80.859 E1.4392
G1 X107.655 Y81.778 E1.4835
G1 X108.759 Y82.521 E1.5234
G1 X110.188 Y83.341 E1.5727
G1 X111.517 Y83.963 E1.6166
G1 X112.762 Y84.432 E1.6564
G1 X114.341 Y84.901 E1.7057
G1 X115.779 Y85.201 E1.7497
G1 X117.097 Y85.371 E1.7895
G1 X118.741 Y85.465 E1.8388
G1 X120.210 Y85.426 E1.8828
G1 X121.532 Y85.289 E1.9226
G1 X123.154 Y85.002 E1.9719
G1 X124.575 Y84.627 E2.0159
G1 X125.830 Y84.189 E2.0556
G1 X127.341 Y83.537 E2.1049
G1 X128.637 Y82.846 E2.1489
G1 X129.888 Y82.048 E2.1933
G1 X131.037 Y81.185 E2.2363
G1 X132.173 Y80.186 E2.2816
G1 X133.197 Y79.135 E2.3255
G1 X134.293 Y77.821 E2.3767
G1 X134.349 Y77.756 E2.3793
G1 X135.004 Y77.027 E2.4087
G1 X135.258 Y76.785 E2.4192
G1 X136.119 Y76.080 E2.4525
G1 X136.407 Y75.879 E2.4630
G1 X137.365 Y75.313 E2.4963
G1 X137.679 Y75.159 E2.5068
G1 X138.710 Y74.746 E2.5400
G1 X139.044 Y74.641 E2.5505
G1 X140.130 Y74.388 E2.5839
G1 X140.477 Y74.335 E2.5944
G1 X141.497 Y74.257 E2.6250
G1 X141.672 Y74.250 E2.6302
G1 X151.301 Y74.250 E2.9185
G1 X151.601 Y74.270 E2.9275
G1 X152.308 Y74.363 E2.9488
G1 X152.891 Y74.519 E2.9669
G1 X153.689 Y74.850 E2.9927
G1 X154.211 Y75.151 E3.0108
G1 X154.896 Y75.677 E3.0366
G1 X155.323 Y76.103 E3.0547
G1 X155.849 Y76.789 E3.0806
G1 X156.150 Y77.311 E3.0986
G1 X156.481 Y78.110 E3.1245
G1 X156.637 Y78.693 E3.1426
G1 X156.730 Y79.400 E3.1639
G1 X156.750 Y79.700 E3.1729
G1 X156.750 Y80.401 E3.1939
G1 X156.730 Y80.701 E3.2029
G1 X156.637 Y81.408 E3.2242
G1 X156.481 Y81.991 E3.2423
G1 X156.150 Y82.789 E3.2682
G1 X155.849 Y83.311 E3.2862
G1 X155.323 Y83.997 E3.3121
G1 X154.897 Y84.423 E3.3301
G1 X154.211 Y84.949 E3.3560
G1 X153.689 Y85.251 E3.3740
G1 X152.891 Y85.581 E3.3999
G1 X152.308 Y85.737 E3.4179
G1 X151.750 Y85.811 E3.4348
G1 X151.750 Y114.189 E4.2843
G1 X152.308 Y114.263 E4.3011
G1 X152.891 Y114.419 E4.3192
G1 X153.689 Y114.749 E4.3451
G1 X154.211 Y115.051 E4.3631
G1 X154.897 Y115.577 E4.3890
G1 X155.323 Y116.003 E4.4070
G1 X155.849 Y116.689 E4.4329
G1 X156.150 Y117.211 E4.4509
G1 X156.481 Y118.009 E4.4768
G1 X156.637 Y118.592 E4.4949
G1 X156.730 Y119.299 E4.5162
G1 X156.750 Y119.599 E4.5252
G1 X156.750 Y120.301 E4.5462
G1 X156.730 Y120.601 E4.5552
G1 X156.637 Y121.308 E4.5766
G1 X156.481 Y121.891 E4.5946
G1 X156.150 Y122.689 E4.6205
G1 X155.849 Y123.211 E4.6385
G1 X155.323 Y123.897 E4.6644
G1 X154.897 Y124.323 E4.6825
G1 X154.211 Y124.849 E4.7083
G1 X153.689 Y125.151 E4.7264
G1 X152.891 Y125.481 E4.7522
G1 X152.308 Y125.637 E4.7703
G1 X151.601 Y125.730 E4.7916
G1 X151.301 Y125.750 E4.8006
G1 X145.849 Y125.750 E4.9638
G1 X145.549 Y125.730 E4.9728
G1 X144.842 Y125.637 E4.9942
G1 X144.259 Y125.481 E5.0122
G1 X143.461 Y125.150 E5.0381
G1 X142.939 Y124.849 E5.0561
G1 X142.253 Y124.323 E5.0820
G1 X141.827 Y123.897 E5.1001
G1 X141.301 Y123.211 E5.1259
G1 X141.035 Y122.750 E5.1419
G1 X108.750 Y122.750 E6.1083
G1 X108.750 Y123.055 E6.1174
G1 X106.055 Y125.750 E6.2315
G1 X64.589 Y125.750 E7.4728
G1 X64.362 Y125.739 E7.4795
G1 X63.730 Y125.676 E7.4986
G1 X63.285 Y125.587 E7.5122
G1 X62.568 Y125.369 E7.5346
G1 X62.149 Y125.194 E7.5482
G1 X61.489 Y124.840 E7.5706
G1 X61.112 Y124.587 E7.5842
G1 X60.622 Y124.182 E7.6032
G1 X60.454 Y124.029 E7.6100
G1 X56.916 Y120.467 E7.7603
G1 X56.719 Y120.241 E7.7693
G1 X56.210 Y119.573 E7.7944
G1 X55.911 Y119.052 E7.8124
G1 X55.533 Y118.137 E7.8420
G1 X55.379 Y117.557 E7.8600
G1 X55.270 Y116.724 E7.8852
G1 X55.250 Y116.424 E7.8941
G1 X55.250 Y111.181 E8.0511
G1 X55.231 Y110.940 E8.0583
G1 X55.217 Y110.881 E8.0601
G1 X55.194 Y110.825 E8.0620
G1 X55.162 Y110.773 E8.0638
G1 X55.126 Y110.731 E8.0654
G1 X55.071 Y110.685 E8.0676
G1 X55.025 Y110.656 E8.0692
G1 X54.969 Y110.633 E8.0710
G1 X54.910 Y110.619 E8.0728
G1 X54.669 Y110.600 E8.0801
G1 X53.760 Y110.600 E8.1073
G1 X53.579 Y110.593 E8.1127
G1 X52.370 Y110.498 E8.1490
G1 X52.013 Y110.441 E8.1598
G1 X50.746 Y110.137 E8.1988
G1 X50.403 Y110.025 E8.2096
G1 X49.199 Y109.527 E8.2486
G1 X48.877 Y109.363 E8.2595
G1 X47.766 Y108.682 E8.2985
G1 X47.473 Y108.469 E8.3093
G1 X46.482 Y107.623 E8.3483
G1 X46.227 Y107.368 E8.3591
G1 X45.381 Y106.377 E8.3981
G1 X45.168 Y106.084 E8.4089
G1 X44.487 Y104.973 E8.4479
G1 X44.323 Y104.651 E8.4588
G1 X43.825 Y103.447 E8.4978
G1 X43.713 Y103.104 E8.5086
G1 X43.409 Y101.837 E8.5476
G1 X43.352 Y101.480 E8.5584
G1 X43.250 Y100.181 E8.5974
G1 X43.250 Y99.819 E8.6082
G1 X43.352 Y98.520 E8.6472
G1 X43.409 Y98.163 E8.6581
G1 X43.713 Y96.896 E8.6971
G1 X43.825 Y96.553 E8.7079
G1 X44.323 Y95.349 E8.7469
G1 X44.487 Y95.027 E8.7577
G1 X45.168 Y93.916 E8.7967
G1 X45.381 Y93.623 E8.8075
G1 X46.227 Y92.632 E8.8465
G1 X46.482 Y92.377 E8.8574
G1 X47.473 Y91.531 E8.8964
G1 X47.766 Y91.318 E8.9072
G1 X48.877 Y90.637 E8.9462
G1 X49.199 Y90.473 E8.9570
G1 X50.403 Y89.975 E8.9960
G1 X50.746 Y89.863 E9.0068
G1 X52.013 Y89.559 E9.0458
G1 X52.370 Y89.502 E9.0567
G1 X53.579 Y89.407 E9.0929
G1 X53.760 Y89.400 E9.0984
G1 X54.669 Y89.400 E9.1256
G1 X54.910 Y89.381 E9.1328
G1 X54.969 Y89.367 E9.1346
G1 X55.025 Y89.344 E9.1364
G1 X55.077 Y89.312 E9.1383
G1 X55.123 Y89.273 E9.1401
G1 X55.162 Y89.227 E9.1419
G1 X55.194 Y89.175 E9.1437
G1 X55.217 Y89.119 E9.1455
G1 X55.231 Y89.060 E9.1473
G1 X55.250 Y88.819 E9.1546
G1 X55.250 Y83.576 E9.3115
G1 X55.270 Y83.276 E9.3205
G1 X55.379 Y82.443 E9.3456
G1 X55.533 Y81.863 E9.3636
G1 X55.911 Y80.948 E9.3933
G1 X56.210 Y80.427 E9.4112
G1 X56.719 Y79.759 E9.4364
G1 X56.916 Y79.533 E9.4453
G1 X60.454 Y75.971 E9.5956
G1 X60.622 Y75.818 E9.6024
G1 X61.112 Y75.413 E9.6215
G92 E0.0000
G1 E-4.0000 F4200
G1 X61.351 Y75.734 F4800
G1 E0.0000 F4200
G92 E0.0000
G1 X61.695 Y75.503 E0.0124 F1500
G1 X62.321 Y75.167 E0.0337
G1 X62.703 Y75.008 E0.0461
G1 X63.382 Y74.801 E0.0673
G1 X63.789 Y74.720 E0.0797
G1 X64.392 Y74.660 E0.0979
G1 X64.599 Y74.650 E0.1041
G1 X97.409 Y74.650 E1.0862
G1 X97.683 Y74.668 E1.0944
G1 X98.481 Y74.773 E1.1185
G1 X99.013 Y74.915 E1.1350
G1 X99.883 Y75.276 E1.1632
G1 X100.360 Y75.551 E1.1797
G1 X100.998 Y76.041 E1.2038
G1 X101.205 Y76.222 E1.2120
G1 X105.062 Y80.080 E1.3753
G1 X106.232 Y81.163 E1.4230
G1 X107.419 Y82.102 E1.4683
G1 X108.547 Y82.861 E1.5090
G1 X110.003 Y83.696 E1.5593
G1 X111.362 Y84.332 E1.6042
G1 X112.634 Y84.811 E1.6449
G1 X114.243 Y85.290 E1.6951
G1 X115.712 Y85.596 E1.7400
G1 X117.060 Y85.770 E1.7807
G1 X118.735 Y85.865 E1.8309
G1 X120.236 Y85.826 E1.8759
G1 X121.588 Y85.686 E1.9166
G1 X123.240 Y85.393 E1.9668
G1 X124.692 Y85.009 E2.0117
G1 X125.975 Y84.562 E2.0524
G1 X127.515 Y83.898 E2.1026
G1 X128.839 Y83.191 E2.1475
G1 X130.116 Y82.377 E2.1929
G1 X131.289 Y81.496 E2.2368
G1 X132.449 Y80.477 E2.2830
G1 X133.494 Y79.403 E2.3279
G1 X134.598 Y78.080 E2.3794
G1 X134.649 Y78.021 E2.3818
G1 X135.292 Y77.306 E2.4106
G1 X135.523 Y77.085 E2.4201
G1 X136.361 Y76.399 E2.4525
G1 X136.623 Y76.216 E2.4621
G1 X137.555 Y75.666 E2.4945
G1 X137.842 Y75.524 E2.5041
G1 X138.844 Y75.123 E2.5364
G1 X139.150 Y75.027 E2.5460
G1 X140.206 Y74.781 E2.5785
G1 X140.522 Y74.732 E2.5880
G1 X141.520 Y74.656 E2.6180
G1 X141.680 Y74.650 E2.6228
G1 X151.288 Y74.650 E2.9104
G1 X151.562 Y74.668 E2.9186
G1 X152.230 Y74.756 E2.9388
G1 X152.762 Y74.898 E2.9553
G1 X153.512 Y75.209 E2.9796
G1 X153.988 Y75.484 E2.9960
G1 X154.632 Y75.978 E3.0203
G1 X155.022 Y76.368 E3.0368
G1 X155.516 Y77.012 E3.0611
G1 X155.791 Y77.488 E3.0776
G1 X156.102 Y78.238 E3.1019
G1 X156.244 Y78.771 E3.1184
G1 X156.332 Y79.439 E3.1386
G1 X156.350 Y79.713 E3.1468
G1 X156.350 Y80.388 E3.1670
G1 X156.332 Y80.662 E3.1752
G1 X156.244 Y81.330 E3.1954
G1 X156.102 Y81.862 E3.2119
G1 X155.791 Y82.612 E3.2362
G1 X155.516 Y83.088 E3.2526
G1 X155.022 Y83.732 E3.2769
G1 X154.632 Y84.122 E3.2934
G1 X153.988 Y84.616 E3.3177
G1 X153.511 Y84.891 E3.3342
G1 X152.762 Y85.202 E3.3585
G1 X152.230 Y85.344 E3.3750
G1 X151.350 Y85.460 E3.4015
G1 X151.350 Y114.540 E4.2720
G1 X152.230 Y114.656 E4.2986
G1 X152.762 Y114.798 E4.3151
G1 X153.511 Y115.109 E4.3394
G1 X153.988 Y115.384 E4.3558
G1 X154.632 Y115.878 E4.3801
G1 X155.022 Y116.268 E4.3966
G1 X155.516 Y116.912 E4.4209
G1 X155.791 Y117.388 E4.4374
G1 X156.102 Y118.138 E4.4617
G1 X156.244 Y118.670 E4.4782
G1 X156.332 Y119.338 E4.4983
G1 X156.350 Y119.612 E4.5066
G1 X156.350 Y120.288 E4.5268
G1 X156.332 Y120.562 E4.5350
G1 X156.244 Y121.230 E4.5552
G1 X156.102 Y121.762 E4.5717
G1 X155.791 Y122.512 E4.5960
G1 X155.516 Y122.988 E4.6124
G1 X155.022 Y123.632 E4.6367
G1 X154.632 Y124.022 E4.6532
G1 X153.988 Y124.516 E4.6775
G1 X153.511 Y124.791 E4.6940
G1 X152.762 Y125.102 E4.7183
G1 X152.230 Y125.244 E4.7348
G1 X151.562 Y125.332 E4.7549
G1 X151.288 Y125.350 E4.7632
G1 X145.862 Y125.350 E4.9256
G1 X145.588 Y125.332 E4.9338
G1 X144.920 Y125.244 E4.9540
G1 X144.388 Y125.102 E4.9704
G1 X143.638 Y124.791 E4.9947
G1 X143.162 Y124.516 E5.0112
G1 X142.518 Y124.022 E5.0355
G1 X142.128 Y123.632 E5.0520
G1 X141.634 Y122.988 E5.0763
G1 X141.266 Y122.350 E5.0983
G1 X108.350 Y122.350 E6.0837
G1 X108.350 Y122.890 E6.0998
G1 X105.890 Y125.350 E6.2040
G1 X64.599 Y125.350 E7.4400
G1 X64.392 Y125.340 E7.4462
G1 X63.789 Y125.280 E7.4643
G1 X63.382 Y125.199 E7.4767
G1 X62.703 Y124.992 E7.4980
G1 X62.321 Y124.833 E7.5104
G1 X61.695 Y124.497 E7.5316
G1 X61.351 Y124.266 E7.5440
G1 X60.884 Y123.880 E7.5622
G1 X60.731 Y123.740 E7.5684
G1 X57.209 Y120.194 E7.7180
G1 X57.029 Y119.988 E7.7262
G1 X56.544 Y119.351 E7.7501
G1 X56.271 Y118.876 E7.7666
G1 X55.913 Y118.008 E7.7946
G1 X55.772 Y117.479 E7.8110
G1 X55.668 Y116.685 E7.8350
G1 X55.650 Y116.411 E7.8432
G1 X55.650 Y111.165 E8.0003
G1 X55.627 Y110.877 E8.0089
G1 X55.598 Y110.757 E8.0126
G1 X55.551 Y110.643 E8.0163
G1 X55.487 Y110.537 E8.0200
G1 X55.410 Y110.447 E8.0235
G1 X55.307 Y110.360 E8.0276
G1 X55.207 Y110.299 E8.0311
G1 X55.093 Y110.252 E8.0348
G1 X54.973 Y110.223 E8.0385
G1 X54.685 Y110.200 E8.0471
G1 X53.767 Y110.200 E8.0746
G1 X53.603 Y110.194 E8.0795
G1 X52.417 Y110.100 E8.1151
G1 X52.091 Y110.049 E8.1250
G1 X50.855 Y109.752 E8.1631
G1 X50.541 Y109.650 E8.1729
G1 X49.366 Y109.163 E8.2110
G1 X49.072 Y109.013 E8.2209
