; G-Code generated by Simplify3D(R) Version 4.1.0
; May 15, 2021 at 12:46:53 PM
; Settings Summary
;   processName,Process1
;   applyToModels,Wheel v2
;   profileName,Default (modified)
;   profileVersion,2017-03-01 08:00:00
;   baseProfile,
;   printMaterial,PLA
;   printQuality,Medium
;   printExtruders,
;   extruderName,Primary Extruder
;   extruderToolheadNumber,0
;   extruderDiameter,0.4
;   extruderAutoWidth,0
;   extruderWidth,0.4
;   extrusionMultiplier,1
;   extruderUseRetract,1
;   extruderRetractionDistance,4
;   extruderExtraRestartDistance,0
;   extruderRetractionZLift,0
;   extruderRetractionSpeed,4200
;   extruderUseCoasting,1
;   extruderCoastingDistance,0.2
;   extruderUseWipe,1
;   extruderWipeDistance,5
;   primaryExtruder,0
;   layerHeight,0.2
;   topSolidLayers,3
;   bottomSolidLayers,3
;   perimeterOutlines,2
;   printPerimetersInsideOut,1
;   startPointOption,2
;   startPointOriginX,0
;   startPointOriginY,0
;   sequentialIslands,0
;   spiralVaseMode,0
;   firstLayerHeightPercentage,90
;   firstLayerWidthPercentage,100
;   firstLayerUnderspeed,0.5
;   useRaft,0
;   raftExtruder,0
;   raftTopLayers,3
;   raftBaseLayers,2
;   raftOffset,3
;   raftSeparationDistance,0.14
;   raftTopInfill,100
;   aboveRaftSpeedMultiplier,0.3
;   useSkirt,1
;   skirtExtruder,0
;   skirtLayers,1
;   skirtOutlines,2
;   skirtOffset,4
;   usePrimePillar,0
;   primePillarExtruder,999
;   primePillarWidth,12
;   primePillarLocation,7
;   primePillarSpeedMultiplier,1
;   useOozeShield,0
;   oozeShieldExtruder,999
;   oozeShieldOffset,2
;   oozeShieldOutlines,1
;   oozeShieldSidewallShape,1
;   oozeShieldSidewallAngle,30
;   oozeShieldSpeedMultiplier,1
;   infillExtruder,0
;   internalInfillPattern,Rectilinear
;   externalInfillPattern,Rectilinear
;   infillPercentage,60
;   outlineOverlapPercentage,20
;   infillExtrusionWidthPercentage,100
;   minInfillLength,5
;   infillLayerInterval,1
;   internalInfillAngles,45,-45
;   overlapInternalInfillAngles,0
;   externalInfillAngles,45,-45
;   generateSupport,0
;   supportExtruder,0
;   supportInfillPercentage,30
;   supportExtraInflation,0
;   supportBaseLayers,0
;   denseSupportExtruder,0
;   denseSupportLayers,0
;   denseSupportInfillPercentage,70
;   supportLayerInterval,1
;   supportHorizontalPartOffset,0.3
;   supportUpperSeparationLayers,1
;   supportLowerSeparationLayers,1
;   supportType,0
;   supportGridSpacing,4
;   maxOverhangAngle,45
;   supportAngles,0
;   temperatureName,Primary Extruder,Bed
;   temperatureNumber,0,0
;   temperatureSetpointCount,1,1
;   temperatureSetpointLayers,1,1
;   temperatureSetpointTemperatures,200,60
;   temperatureStabilizeAtStartup,1,1
;   temperatureHeatedBed,0,1
;   fanLayers,1,2
;   fanSpeeds,0,100
;   blipFanToFullPower,0
;   adjustSpeedForCooling,1
;   minSpeedLayerTime,15
;   minCoolingSpeedSlowdown,20
;   increaseFanForCooling,0
;   minFanLayerTime,45
;   maxCoolingFanSpeed,100
;   increaseFanForBridging,0
;   bridgingFanSpeed,100
;   use5D,1
;   relativeEdistances,0
;   allowEaxisZeroing,1
;   independentExtruderAxes,0
;   includeM10123,0
;   stickySupport,1
;   applyToolheadOffsets,0
;   gcodeXoffset,0
;   gcodeYoffset,0
;   gcodeZoffset,0
;   overrideMachineDefinition,0
;   machineTypeOverride,0
;   strokeXoverride,200
;   strokeYoverride,200
;   strokeZoverride,200
;   originOffsetXoverride,0
;   originOffsetYoverride,0
;   originOffsetZoverride,0
;   homeXdirOverride,-1
;   homeYdirOverride,-1
;   homeZdirOverride,-1
;   flipXoverride,1
;   flipYoverride,-1
;   flipZoverride,1
;   toolheadOffsets,0,0|0,0|0,0|0,0|0,0|0,0
;   overrideFirmwareConfiguration,0
;   firmwareTypeOverride,RepRap (Marlin/Repetier/Sprinter)
;   GPXconfigOverride,r2
;   baudRateOverride,115200
;   overridePrinterModels,0
;   printerModelsOverride
;   startingGcode,G28; home all axes
;   layerChangeGcode,
;   retractionGcode,
;   toolChangeGcode,
;   endingGcode,G28 X0 Y0;,M104 S0 ; turn off extruder,M140 S0 ; turn off bed,M84 ; disable motors
;   exportFileFormat,gcode
;   celebration,0
;   celebrationSong,Random Song
;   postProcessing,
;   defaultSpeed,3000
;   outlineUnderspeed,0.5
;   solidInfillUnderspeed,0.8
;   supportUnderspeed,0.8
;   rapidXYspeed,4800
;   rapidZspeed,1200
;   minBridgingArea,50
;   bridgingExtraInflation,0
;   bridgingExtrusionMultiplier,1
;   bridgingSpeedMultiplier,1
;   useFixedBridgingAngle,0
;   fixedBridgingAngle,0
;   applyBridgingToPerimeters,0
;   filamentDiameters,1.75|1.75|1.75|1.75|1.75|1.75
;   filamentPricesPerKg,46|46|46|46|46|46
;   filamentDensities,1.25|1.25|1.25|1.25|1.25|1.25
;   useMinPrintHeight,0
;   minPrintHeight,0
;   useMaxPrintHeight,0
;   maxPrintHeight,0
;   useDiaphragm,0
;   diaphragmLayerInterval,20
;   robustSlicing,1
;   mergeAllIntoSolid,0
;   onlyRetractWhenCrossingOutline,1
;   retractBetweenLayers,1
;   useRetractionMinTravel,0
;   retractionMinTravel,3
;   retractWhileWiping,0
;   onlyWipeOutlines,1
;   avoidCrossingOutline,1
;   maxMovementDetourFactor,10
;   toolChangeRetractionDistance,12
;   toolChangeExtraRestartDistance,-0.5
;   toolChangeRetractionSpeed,600
;   externalThinWallType,0
;   internalThinWallType,2
;   thinWallAllowedOverlapPercentage,15
;   singleExtrusionMinLength,1
;   singleExtrusionMinPrintingWidthPercentage,50
;   singleExtrusionMaxPrintingWidthPercentage,200
;   singleExtrusionEndpointExtension,0.2
;   horizontalSizeCompensation,0
G90
M82
M106 S0
M140 S60
M190 S60
M104 S200 T0
M109 S200 T0
G28; home all axes
; process Process1
; layer 1, Z = 0.180
T0
G92 E0.0000
G1 E-4.0000 F4200
; feature skirt
; tool H0.180 W0.400
G1 Z0.180 F1200
G1 X59.954 Y58.599 F4800
G1 E0.0000 F4200
G92 E0.0000
G1 X62.471 Y56.304 E0.1020 F1500
G1 X62.578 Y56.212 E0.1062
G1 X65.232 Y54.077 E0.2082
G1 X65.345 Y53.992 E0.2124
G1 X68.125 Y52.024 E0.3143
G1 X68.243 Y51.945 E0.3186
G1 X71.139 Y50.152 E0.4205
G1 X71.261 Y50.082 E0.4248
G1 X74.262 Y48.470 E0.5267
G1 X74.389 Y48.407 E0.5310
G1 X77.483 Y46.983 E0.6329
G1 X77.614 Y46.928 E0.6372
G1 X80.790 Y45.698 E0.7391
G1 X80.923 Y45.651 E0.7434
G1 X84.169 Y44.618 E0.8453
G1 X84.305 Y44.579 E0.8496
G1 X87.608 Y43.749 E0.9515
G1 X87.747 Y43.718 E0.9558
G1 X91.095 Y43.093 E1.0577
G1 X91.235 Y43.071 E1.0620
G1 X94.615 Y42.652 E1.1639
G1 X94.756 Y42.639 E1.1682
G1 X98.155 Y42.429 E1.2701
G1 X98.297 Y42.425 E1.2744
G1 X101.703 Y42.425 E1.3763
G1 X101.845 Y42.429 E1.3805
G1 X105.244 Y42.639 E1.4825
G1 X105.385 Y42.652 E1.4867
G1 X108.765 Y43.071 E1.5887
G1 X108.905 Y43.093 E1.5929
G1 X112.253 Y43.718 E1.6949
G1 X112.392 Y43.749 E1.6991
G1 X115.695 Y44.579 E1.8011
G1 X115.831 Y44.618 E1.8053
G1 X119.077 Y45.651 E1.9073
G1 X119.210 Y45.698 E1.9115
G1 X122.386 Y46.928 E2.0135
G1 X122.517 Y46.983 E2.0177
G1 X125.611 Y48.407 E2.1197
G1 X125.738 Y48.470 E2.1239
G1 X128.739 Y50.082 E2.2259
G1 X128.861 Y50.152 E2.2301
G1 X131.757 Y51.945 E2.3321
G1 X131.875 Y52.024 E2.3363
G1 X134.655 Y53.992 E2.4383
G1 X134.768 Y54.077 E2.4425
G1 X137.422 Y56.212 E2.5445
G1 X137.529 Y56.304 E2.5487
G1 X140.046 Y58.599 E2.6507
G1 X140.148 Y58.698 E2.6549
G1 X142.519 Y61.143 E2.7569
G1 X142.615 Y61.247 E2.7611
G1 X144.831 Y63.834 E2.8631
G1 X144.919 Y63.944 E2.8673
G1 X146.972 Y66.662 E2.9692
G1 X147.054 Y66.778 E2.9735
G1 X148.935 Y69.617 E3.0754
G1 X149.010 Y69.738 E3.0797
G1 X150.713 Y72.687 E3.1816
G1 X150.780 Y72.812 E3.1859
G1 X152.298 Y75.861 E3.2878
G1 X152.357 Y75.990 E3.2921
G1 X153.685 Y79.126 E3.3940
G1 X153.736 Y79.259 E3.3983
G1 X154.868 Y82.471 E3.5002
G1 X154.911 Y82.606 E3.5045
G1 X155.843 Y85.882 E3.6064
G1 X155.878 Y86.019 E3.6107
G1 X156.606 Y89.346 E3.7126
G1 X156.632 Y89.486 E3.7169
G1 X157.155 Y92.851 E3.8188
G1 X157.172 Y92.992 E3.8231
G1 X157.486 Y96.383 E3.9250
G1 X157.495 Y96.525 E3.9293
G1 X157.600 Y99.929 E4.0312
G1 X157.600 Y100.071 E4.0354
G1 X157.495 Y103.475 E4.1374
G1 X157.486 Y103.617 E4.1416
G1 X157.172 Y107.008 E4.2436
G1 X157.155 Y107.149 E4.2478
G1 X156.632 Y110.514 E4.3498
G1 X156.606 Y110.654 E4.3540
G1 X155.878 Y113.981 E4.4560
G1 X155.843 Y114.118 E4.4602
G1 X154.911 Y117.394 E4.5622
G1 X154.868 Y117.529 E4.5664
G1 X153.736 Y120.741 E4.6684
G1 X153.685 Y120.874 E4.6726
G1 X152.357 Y124.010 E4.7746
G1 X152.298 Y124.139 E4.7788
G1 X150.780 Y127.188 E4.8808
G1 X150.713 Y127.313 E4.8850
G1 X149.010 Y130.262 E4.9870
G1 X148.935 Y130.383 E4.9912
G1 X147.054 Y133.222 E5.0932
G1 X146.972 Y133.338 E5.0974
G1 X144.919 Y136.056 E5.1994
G1 X144.831 Y136.166 E5.2036
G1 X142.615 Y138.752 E5.3056
G1 X142.519 Y138.857 E5.3098
G1 X140.148 Y141.302 E5.4118
G1 X140.046 Y141.401 E5.4160
G1 X137.529 Y143.696 E5.5180
G1 X137.422 Y143.788 E5.5222
G1 X134.768 Y145.923 E5.6241
G1 X134.655 Y146.008 E5.6284
G1 X131.875 Y147.976 E5.7303
G1 X131.757 Y148.055 E5.7346
G1 X128.861 Y149.848 E5.8365
G1 X128.739 Y149.918 E5.8408
G1 X125.738 Y151.530 E5.9427
G1 X125.611 Y151.593 E5.9470
G1 X122.517 Y153.017 E6.0489
G1 X122.386 Y153.072 E6.0532
G1 X119.210 Y154.302 E6.1551
G1 X119.077 Y154.349 E6.1594
G1 X115.831 Y155.382 E6.2613
G1 X115.695 Y155.421 E6.2656
G1 X112.392 Y156.251 E6.3675
G1 X112.253 Y156.282 E6.3718
G1 X108.905 Y156.907 E6.4737
G1 X108.765 Y156.929 E6.4780
G1 X105.385 Y157.348 E6.5799
G1 X105.244 Y157.361 E6.5842
G1 X101.845 Y157.571 E6.6861
G1 X101.703 Y157.575 E6.6903
G1 X98.297 Y157.575 E6.7923
G1 X98.155 Y157.571 E6.7965
G1 X94.756 Y157.361 E6.8985
G1 X94.615 Y157.348 E6.9027
G1 X91.235 Y156.929 E7.0047
G1 X91.095 Y156.907 E7.0089
G1 X87.747 Y156.282 E7.1109
G1 X87.608 Y156.251 E7.1151
G1 X84.305 Y155.421 E7.2171
G1 X84.169 Y155.382 E7.2213
G1 X80.923 Y154.349 E7.3233
G1 X80.790 Y154.302 E7.3275
G1 X77.614 Y153.072 E7.4295
G1 X77.483 Y153.017 E7.4337
G1 X74.389 Y151.593 E7.5357
G1 X74.262 Y151.530 E7.5399
G1 X71.261 Y149.918 E7.6419
G1 X71.139 Y149.848 E7.6461
G1 X68.243 Y148.055 E7.7481
G1 X68.125 Y147.976 E7.7523
G1 X65.345 Y146.008 E7.8543
G1 X65.232 Y145.923 E7.8585
G1 X62.578 Y143.788 E7.9605
G1 X62.471 Y143.696 E7.9647
G1 X59.954 Y141.401 E8.0667
G1 X59.852 Y141.302 E8.0709
G1 X57.481 Y138.857 E8.1729
G1 X57.385 Y138.753 E8.1771
G1 X55.169 Y136.166 E8.2790
G1 X55.081 Y136.056 E8.2833
G1 X53.028 Y133.338 E8.3852
G1 X52.946 Y133.222 E8.3895
G1 X51.065 Y130.383 E8.4914
G1 X50.990 Y130.262 E8.4957
G1 X49.287 Y127.313 E8.5976
G1 X49.220 Y127.188 E8.6019
G1 X47.702 Y124.139 E8.7038
G1 X47.643 Y124.010 E8.7081
G1 X46.315 Y120.874 E8.8100
G1 X46.264 Y120.741 E8.8143
G1 X45.132 Y117.529 E8.9162
G1 X45.089 Y117.394 E8.9205
G1 X44.157 Y114.118 E9.0224
G1 X44.122 Y113.981 E9.0267
G1 X43.394 Y110.654 E9.1286
G1 X43.368 Y110.514 E9.1329
G1 X42.845 Y107.149 E9.2348
G1 X42.828 Y107.008 E9.2391
G1 X42.514 Y103.617 E9.3410
G1 X42.505 Y103.475 E9.3453
G1 X42.400 Y100.071 E9.4472
G1 X42.400 Y99.929 E9.4514
G1 X42.505 Y96.525 E9.5534
G1 X42.514 Y96.383 E9.5576
G1 X42.828 Y92.992 E9.6596
G1 X42.845 Y92.851 E9.6638
G1 X43.368 Y89.486 E9.7658
G1 X43.394 Y89.346 E9.7700
G1 X44.122 Y86.019 E9.8720
G1 X44.157 Y85.882 E9.8762
G1 X45.089 Y82.606 E9.9782
G1 X45.132 Y82.471 E9.9824
G1 X46.264 Y79.259 E10.0844
G1 X46.315 Y79.126 E10.0886
G1 X47.643 Y75.990 E10.1906
G1 X47.702 Y75.861 E10.1948
G1 X49.220 Y72.812 E10.2968
G1 X49.287 Y72.687 E10.3010
G1 X50.990 Y69.738 E10.4030
G1 X51.065 Y69.617 E10.4072
G1 X52.946 Y66.778 E10.5092
G1 X53.028 Y66.662 E10.5134
G1 X55.081 Y63.944 E10.6154
G1 X55.169 Y63.834 E10.6196
G1 X57.385 Y61.247 E10.7216
G1 X57.481 Y61.143 E10.7258
G1 X59.852 Y58.698 E10.8278
G1 X59.954 Y58.599 E10.8320
G92 E0.0000
G1 E-4.0000 F4200
G1 X60.228 Y58.890 F4800
G1 E0.0000 F4200
G92 E0.0000
G1 X62.735 Y56.604 E0.1016 F1500
G1 X62.834 Y56.520 E0.1055
G1 X65.478 Y54.392 E0.2070
G1 X65.581 Y54.314 E0.2109
G1 X68.351 Y52.354 E0.3125
G1 X68.459 Y52.282 E0.3164
G1 X71.344 Y50.496 E0.4180
G1 X71.456 Y50.431 E0.4218
G1 X74.446 Y48.825 E0.5234
G1 X74.562 Y48.768 E0.5273
G1 X77.645 Y47.349 E0.6289
G1 X77.764 Y47.299 E0.6327
G1 X80.928 Y46.073 E0.7343
G1 X81.050 Y46.030 E0.7382
G1 X84.284 Y45.001 E0.8398
G1 X84.409 Y44.966 E0.8437
G1 X87.700 Y44.138 E0.9453
G1 X87.826 Y44.110 E0.9491
G1 X91.162 Y43.487 E1.0507
G1 X91.290 Y43.467 E1.0546
G1 X94.658 Y43.050 E1.1562
G1 X94.787 Y43.038 E1.1600
G1 X98.174 Y42.829 E1.2616
G1 X98.303 Y42.825 E1.2655
G1 X101.697 Y42.825 E1.3671
G1 X101.826 Y42.829 E1.3710
G1 X105.213 Y43.038 E1.4725
G1 X105.342 Y43.050 E1.4764
G1 X108.710 Y43.467 E1.5780
G1 X108.838 Y43.487 E1.5819
G1 X112.174 Y44.110 E1.6835
G1 X112.300 Y44.138 E1.6873
G1 X115.591 Y44.966 E1.7889
G1 X115.716 Y45.001 E1.7928
G1 X118.950 Y46.030 E1.8944
G1 X119.072 Y46.073 E1.8982
G1 X122.236 Y47.299 E1.9998
G1 X122.355 Y47.349 E2.0037
G1 X125.438 Y48.768 E2.1053
G1 X125.554 Y48.825 E2.1092
G1 X128.544 Y50.431 E2.2107
G1 X128.656 Y50.496 E2.2146
G1 X131.541 Y52.282 E2.3162
G1 X131.649 Y52.354 E2.3201
G1 X134.419 Y54.314 E2.4217
G1 X134.522 Y54.392 E2.4255
G1 X137.166 Y56.520 E2.5271
G1 X137.265 Y56.604 E2.5310
G1 X139.772 Y58.890 E2.6326
G1 X139.865 Y58.980 E2.6365
G1 X142.228 Y61.417 E2.7380
G1 X142.315 Y61.513 E2.7419
G1 X144.523 Y64.090 E2.8435
G1 X144.604 Y64.190 E2.8474
G1 X146.649 Y66.899 E2.9490
G1 X146.724 Y67.004 E2.9528
G1 X148.598 Y69.833 E3.0544
G1 X148.667 Y69.943 E3.0583
G1 X150.363 Y72.882 E3.1599
G1 X150.424 Y72.996 E3.1637
G1 X151.937 Y76.034 E3.2653
G1 X151.991 Y76.152 E3.2692
G1 X153.314 Y79.276 E3.3708
G1 X153.361 Y79.397 E3.3747
G1 X154.489 Y82.598 E3.4763
G1 X154.528 Y82.721 E3.4801
G1 X155.457 Y85.985 E3.5817
G1 X155.488 Y86.111 E3.5856
G1 X156.214 Y89.426 E3.6872
G1 X156.238 Y89.553 E3.6910
G1 X156.758 Y92.907 E3.7926
G1 X156.774 Y93.035 E3.7965
G1 X157.088 Y96.414 E3.8981
G1 X157.095 Y96.543 E3.9020
G1 X157.200 Y99.935 E4.0035
G1 X157.200 Y100.065 E4.0074
G1 X157.095 Y103.457 E4.1090
G1 X157.088 Y103.586 E4.1129
G1 X156.774 Y106.965 E4.2145
G1 X156.758 Y107.093 E4.2183
G1 X156.238 Y110.447 E4.3199
G1 X156.214 Y110.574 E4.3238
G1 X155.488 Y113.889 E4.4254
G1 X155.457 Y114.015 E4.4293
G1 X154.528 Y117.279 E4.5308
G1 X154.489 Y117.402 E4.5347
G1 X153.361 Y120.603 E4.6363
G1 X153.314 Y120.723 E4.6402
G1 X151.991 Y123.848 E4.7417
G1 X151.937 Y123.966 E4.7456
G1 X150.424 Y127.004 E4.8472
G1 X150.363 Y127.118 E4.8511
G1 X148.667 Y130.057 E4.9527
G1 X148.598 Y130.167 E4.9565
G1 X146.724 Y132.996 E5.0581
G1 X146.649 Y133.102 E5.0620
G1 X144.604 Y135.810 E5.1636
G1 X144.523 Y135.910 E5.1675
G1 X142.315 Y138.488 E5.2690
G1 X142.228 Y138.583 E5.2729
G1 X139.865 Y141.020 E5.3745
G1 X139.772 Y141.110 E5.3784
G1 X137.265 Y143.396 E5.4800
G1 X137.166 Y143.480 E5.4838
G1 X134.522 Y145.608 E5.5854
G1 X134.419 Y145.685 E5.5893
G1 X131.649 Y147.646 E5.6909
G1 X131.541 Y147.718 E5.6947
G1 X128.656 Y149.504 E5.7963
G1 X128.544 Y149.569 E5.8002
G1 X125.554 Y151.175 E5.9018
G1 X125.438 Y151.232 E5.9057
G1 X122.355 Y152.651 E6.0072
G1 X122.236 Y152.701 E6.0111
G1 X119.072 Y153.927 E6.1127
G1 X118.950 Y153.970 E6.1166
G1 X115.716 Y154.999 E6.2182
G1 X115.591 Y155.034 E6.2220
G1 X112.300 Y155.862 E6.3236
G1 X112.174 Y155.890 E6.3275
G1 X108.838 Y156.513 E6.4291
G1 X108.710 Y156.533 E6.4330
G1 X105.342 Y156.950 E6.5345
G1 X105.213 Y156.962 E6.5384
G1 X101.826 Y157.171 E6.6400
G1 X101.697 Y157.175 E6.6439
G1 X98.303 Y157.175 E6.7455
G1 X98.174 Y157.171 E6.7493
G1 X94.787 Y156.962 E6.8509
G1 X94.658 Y156.950 E6.8548
G1 X91.290 Y156.533 E6.9564
G1 X91.162 Y156.513 E6.9603
G1 X87.826 Y155.890 E7.0618
G1 X87.700 Y155.862 E7.0657
G1 X84.409 Y155.034 E7.1673
G1 X84.284 Y154.999 E7.1712
G1 X81.050 Y153.970 E7.2728
G1 X80.928 Y153.927 E7.2766
G1 X77.764 Y152.701 E7.3782
G1 X77.645 Y152.651 E7.3821
G1 X74.562 Y151.232 E7.4837
G1 X74.446 Y151.175 E7.4875
G1 X71.456 Y149.569 E7.5891
G1 X71.344 Y149.504 E7.5930
G1 X68.458 Y147.718 E7.6946
G1 X68.351 Y147.646 E7.6985
G1 X65.581 Y145.685 E7.8001
G1 X65.478 Y145.608 E7.8039
G1 X62.834 Y143.480 E7.9055
G1 X62.735 Y143.396 E7.9094
G1 X60.228 Y141.110 E8.0110
G1 X60.135 Y141.019 E8.0148
G1 X57.772 Y138.583 E8.1164
G1 X57.685 Y138.487 E8.1203
G1 X55.477 Y135.911 E8.2219
G1 X55.396 Y135.810 E8.2258
G1 X53.351 Y133.101 E8.3273
G1 X53.276 Y132.996 E8.3312
G1 X51.402 Y130.167 E8.4328
G1 X51.334 Y130.057 E8.4367
